X:9
T:The Spinnin' Wheel
T: From Logie Collection
C: J. Scott Skinner
R: reel
M:C|
L:1/8
Z: Jason R. Fruit <JasonFruit@gmail.com>
K:D
A | !>!!p!F>D D/D/D (FG).!<(!A!<)!.B | cdAd BEEA | F>D D/D/D (FG).!<(!A.!<)!B | cdAd FD[DA,] :|
g| .f(dcd) ABcd | efgf eEEg | f(dcd) ABcd | egfe {c}dD[DA,]g |
!f!.f(dcd) ABcd | efgf eEEG | F>D D/D/D (FG) .!<(!A.!<)!B | cdAd F"^Last."D!fermata![DA,] |]

